teeny/outline/stop-circle.svg

<svg width="15" height="15" viewBox="0 0 15 15" fill="none" xmlns="http://www.w3.org/2000/svg">
<path d="M0.5 7.5C0.5 3.63401 3.63401 0.5 7.5 0.5C11.366 0.5 14.5 3.63401 14.5 7.5C14.5 11.366 11.366 14.5 7.5 14.5C3.63401 14.5 0.5 11.366 0.5 7.5Z" stroke="black"/>
<path d="M9.5 5.5H5.5V9.5H9.5V5.5Z" stroke="black"/>
</svg>

<svg viewBox="0 0 15 15" xmlns="http://www.w3.org/2000/svg"><g fill="none" stroke="#000"><path d="M.5 7.5c0-3.87 3.13-7 7-7 3.86 0 7 3.13 7 7 0 3.86-3.14 7-7 7 -3.87 0-7-3.14-7-7Z"/><path d="M9.5 5.5h-4v4h4v-4Z"/></g></svg>
